!!!COM: Palestrina, Giovanni Perluigi da
!!!OPR: Missa De Beata Marie Virginis (II)
!!!OMD: Gloria
!!!OTL: Domine Deus Agnus
**kern	**kern	**kern	**kern
*Itenor	*Itenor	*Icalto	*Icant
!Tenor 2	!Tenor 1	!Altus	!Cantus
*clefGv2	*clefGv2	*clefG2	*clefG2
*k[]	*k[]	*k[]	*k[]
*G:mix	*G:mix	*G:mix	*G:mix
*M4/2	*M4/2	*M4/2	*M4/2
=45	=45	=45	=45
0r	0r	2r	1g
.	.	2.c	.
.	.	.	1cc
.	.	4d	.
.	.	4e	.
.	.	4f	.
=46	=46	=46	=46
0r	0r	2g	2b
.	.	2a	2cc
.	.	2f	1dd
.	.	2g	.
=47	=47	=47	=47
1r	0r	2c	1ee
.	.	1cc	.
2r	.	.	1dd
[2G	.	4b	.
.	.	4a	.
=48	=48	=48	=48
4G]	0r	4b	2.dd
4A	.	4a	.
4B	.	2g	.
4c	.	.	8cc
.	.	.	8b
2d	.	2f#	2a
2e	.	[2g	2g
=49	=49	=49	=49
2c	1r	2g]	1a
2d	.	2f#	.
2G	2r	1g	1b
[2g	[2e	.	.
=50	=50	=50	=50
2g]	2e]	2r	0r
2f	2d	1a	.
2e	2c	.	.
2d	2B	2g	.
=51	=51	=51	=51
2.c	1A	2f	2r
.	.	4e	1ee
4d	.	4f	.
4e	1G	4g	.
4f	.	4a	.
2g	.	4b	2dd
.	.	4g	.
=52	=52	=52	=52
1e	1c	2a	2cc
.	.	1g	2b
1r	1d	.	1a
.	.	2f#	.
=53	=53	=53	=53
2r	2e	2g	2g
1a	1f	4f	2cc
.	.	4g	.
.	.	4a	2dd
.	.	4b	.
2g	2c	2cc	[2ee
=54	=54	=54	=54
1f	1d	0a	2ee]
.	.	.	1dd
1e	1A	.	.
.	.	.	2cc#
=55	=55	=55	=55
[0f#	[0d	[0a	[0dd
=56	=56	=56	=56
0f#]	0d]	0a]	0dd]
*-	*-	*-	*-
!!!CDT: 1525/^1526/-1594/2/2
!!!OCY: Italia
!!!AGN: Mass (Paraphrase)
!!!AST: renaissance, vocal
!!!ASW: Gregorian Mass
!!!PWK: Masses, Book Mantuan I
!!!RNB: Cadence finals: D
!!!YOR: Le Opere Complete, v. 18, p. 126
!!!YOO: Rome, Italy: Fratelli Scalera
!!!END: 1992//
!!!EED: John Miller
!!!YEC: Copyright 2000, John Miller
!!!YEN: United States of America
!!!YEM: Rights to all derivative electronic formats reserved.
!!!YEM: Refer to licensing agreement for further details.
!!!YEM: This file must be accompanied by the licensing agreement.
!!!YEM: A copy of the licensing agreement may be found at http://www.music-cog.ohio-state.edu/HumdrumDatabases/Palestrina/license.txt
!!!EMD: converted to Humdrum by Bret Aarden
